symbols/web/alarm/materialsymbolsoutlined/alarm_wght300_40px.svg

<svg xmlns="http://www.w3.org/2000/svg" height="40" width="40"><path d="M20 35.792q-2.958 0-5.521-1.104-2.562-1.105-4.479-3.021-1.917-1.917-3.042-4.5-1.125-2.584-1.125-5.5 0-2.959 1.125-5.521 1.125-2.563 3.042-4.5 1.917-1.938 4.479-3.042Q17.042 7.5 20 7.5q2.917 0 5.479 1.104 2.563 1.104 4.5 3.042 1.938 1.937 3.042 4.5 1.104 2.562 1.104 5.521 0 2.916-1.104 5.5-1.104 2.583-3.042 4.5-1.937 1.916-4.5 3.021-2.562 1.104-5.479 1.104Zm0-14.125Zm5.125 6.583 1.458-1.458-5.5-5.5v-7.959H19v8.792ZM9.375 4.792l1.5 1.458-6.333 6.208L3.083 11Zm21.208 0L36.917 11l-1.5 1.458-6.292-6.208ZM20 33.708q5 0 8.521-3.52 3.521-3.521 3.521-8.521 0-5.042-3.521-8.563Q25 9.583 20 9.583q-5.042 0-8.562 3.521-3.521 3.521-3.521 8.563 0 5 3.521 8.521 3.52 3.52 8.562 3.52Z"/></svg>

<svg xmlns="http://www.w3.org/2000/svg" height="40" width="40"><path d="M20 35.792Q17.042 35.792 14.479 34.688Q11.917 33.583 10 31.667Q8.083 29.75 6.958 27.167Q5.833 24.583 5.833 21.667Q5.833 18.708 6.958 16.146Q8.083 13.583 10 11.646Q11.917 9.708 14.479 8.604Q17.042 7.5 20 7.5Q22.917 7.5 25.479 8.604Q28.042 9.708 29.979 11.646Q31.917 13.583 33.021 16.146Q34.125 18.708 34.125 21.667Q34.125 24.583 33.021 27.167Q31.917 29.75 29.979 31.667Q28.042 33.583 25.479 34.688Q22.917 35.792 20 35.792ZM20 21.667Q20 21.667 20 21.667Q20 21.667 20 21.667Q20 21.667 20 21.667Q20 21.667 20 21.667Q20 21.667 20 21.667Q20 21.667 20 21.667Q20 21.667 20 21.667Q20 21.667 20 21.667ZM25.125 28.25 26.583 26.792 21.083 21.292V13.333H19V22.125ZM9.375 4.792 10.875 6.25 4.542 12.458 3.083 11ZM30.583 4.792 36.917 11 35.417 12.458 29.125 6.25ZM20 33.708Q25 33.708 28.521 30.188Q32.042 26.667 32.042 21.667Q32.042 16.625 28.521 13.104Q25 9.583 20 9.583Q14.958 9.583 11.438 13.104Q7.917 16.625 7.917 21.667Q7.917 26.667 11.438 30.188Q14.958 33.708 20 33.708Z"/></svg>
